src/assets/images/ic_mute.svg

<?xml version="1.0" encoding="UTF-8"?>
<svg width="18px" height="18px" viewBox="0 0 18 18" version="1.1" xmlns="http://www.w3.org/2000/svg" xmlns:xlink="http://www.w3.org/1999/xlink">
    <g stroke="none" stroke-width="1" fill="none" fill-rule="evenodd">
        <g>
            <rect id="bg-copy" fill="#A9A9A9" x="0" y="0" width="18" height="18" rx="9"></rect>
            <path d="M3.36652156,7.34012724 L8.36652156,3.24662177 C8.7938576,2.89676128 9.42389986,2.95956763 9.77376034,3.38690367 C9.92006163,3.56560294 10,3.78943298 10,4.02038211 L10,13.9803731 C10,14.5326578 9.55228475,14.9803731 9,14.9803731 C8.77327887,14.9803731 8.55328699,14.9033302 8.37610295,14.7618796 L3.37610295,10.7702492 C3.13841405,10.5804959 3,10.2928846 3,9.98874265 L3,8.11388758 C3,7.81406336 3.13452946,7.53005942 3.36652156,7.34012724 Z M13.9061637,9 L14.8123274,9.90616368 C15.0625575,10.1563939 15.0625575,10.5620972 14.8123274,10.8123274 C14.5620972,11.0625575 14.1563939,11.0625575 13.9061637,10.8123274 L13,9.90616368 L12.0938363,10.8123274 C11.8436061,11.0625575 11.4379028,11.0625575 11.1876726,10.8123274 C10.9374425,10.5620972 10.9374425,10.1563939 11.1876726,9.90616368 L12.0938363,9 L11.1876726,8.09383632 C10.9374425,7.84360613 10.9374425,7.43790283 11.1876726,7.18767264 C11.4379028,6.93744245 11.8436061,6.93744245 12.0938363,7.18767264 L13,8.09383632 L13.9061637,7.18767264 C14.1563939,6.93744245 14.5620972,6.93744245 14.8123274,7.18767264 C15.0625575,7.43790283 15.0625575,7.84360613 14.8123274,8.09383632 L13.9061637,9 L13.9061637,9 Z" fill="#FFFFFF"></path>
        </g>
    </g>
</svg>

<svg width="18" height="18" xmlns="http://www.w3.org/2000/svg"><g fill="none" fill-rule="evenodd"><rect fill="#A9A9A9" width="18" height="18" rx="9"/><path d="M3.367 7.34l5-4.093A1 1 0 0110 4.02v9.96a1 1 0 01-1.624.782l-5-3.992A1 1 0 013 9.99V8.114a1 1 0 01.367-.774zM13.907 9l.905.906a.64.64 0 01-.906.906L13 9.906l-.906.906a.64.64 0 01-.906-.906L12.094 9l-.906-.906a.64.64 0 01.906-.906l.906.906.906-.906a.64.64 0 01.906.906L13.906 9z" fill="#FFF"/></g></svg>
